X: 3131
T: Beauties Of Ireland, The
R: jig
M: 6/8
K: Dmajor
BGD GDG|dBG DGD|AFD FDF|cAF DF/G/A|
BGD GBG|dBG B/c/dG|AFd cAF|GAG G2:|
BGG GAB|cec B/c/dB|AFD DE/F/G|AFd ABc|
BGG GG/A/B|cee Bdd|AFd cAF|GB/A/G G2:|

